source_snapshot/assets/lut/dry.3DL
#Created by: Adobe Photoshop Export Color Lookup Plugin
#Description: dry.psd
0 33 66 99 132 165 198 231 264 297 330 363 396 429 462 495 528 561 594 627 660 693 726 759 792 825 858 891 924 957 990 1023
0 0 0
0 0 153
0 0 305
0 0 457
0 0 609
0 0 760
0 0 910
0 0 1058
0 0 1206
0 0 1352
0 0 1497
0 0 1640
0 0 1781
0 0 1920
0 0 2056
0 0 2190
0 0 2322
0 0 2451
0 0 2577
0 0 2702
0 0 2825
0 0 2946
0 0 3066
0 0 3184
0 0 3300
0 0 3416
0 0 3531
0 0 3644
0 0 3758
0 0 3870
0 0 3983
0 0 4095
0 153 0
0 153 153
0 153 305
0 153 457
0 153 609
0 153 760
0 153 910
0 153 1058
0 153 1206
0 153 1352
0 153 1497
0 153 1640
0 153 1781
0 153 1920
0 153 2056
0 153 2190
0 153 2322
0 153 2451
0 153 2577
0 153 2702
0 153 2825
0 153 2946
0 153 3066
0 153 3184
0 153 3300
0 153 3416
0 153 3531
0 153 3644
0 153 3758
0 153 3870
0 153 3983
0 153 4095
0 305 0
0 305 153
0 305 305
0 305 457
0 305 609
0 305 760
0 305 910
0 305 1058
0 305 1206
0 305 1352
0 305 1497
0 305 1640
0 305 1781
0 305 1920
0 305 2056
0 305 2190
0 305 2322
0 305 2451
0 305 2577
0 305 2702
0 305 2825
0 305 2946
0 305 3066
0 305 3184
0 305 3300
0 305 3416
0 305 3531
0 305 3644
0 305 3758
0 305 3870
0 305 3983
0 305 4095
0 457 0
0 457 153
0 457 305
0 457 457
0 457 609
0 457 760
0 457 910
0 457 1058
0 457 1206
0 457 1352
0 457 1497
0 457 1640
0 457 1781
0 457 1920
0 457 2056
0 457 2190
0 457 2322
0 457 2451
0 457 2577
0 457 2702
0 457 2825
0 457 2946
0 457 3066
0 457 3184
0 457 3300
0 457 3416
0 457 3531
0 457 3644
0 457 3758
0 457 3870
0 457 3983
0 457 4095
0 609 0
0 609 153
0 609 305
0 609 457
0 609 609
0 609 760
0 609 910
0 609 1058
0 609 1206
0 609 1352
0 609 1497
0 609 1640
0 609 1781
0 609 1920
0 609 2056
0 609 2190
0 609 2322
0 609 2451
0 609 2577
0 609 2702
0 609 2825
0 609 2946
0 609 3066
0 609 3184
0 609 3300
0 609 3416
0 609 3531
0 609 3644
0 609 3758
0 609 3870
0 609 3983
0 609 4095
0 760 0
0 760 153
0 760 305
0 760 457
0 760 609
0 760 760
0 760 910
0 760 1058
0 760 1206
0 760 1352
0 760 1497
0 760 1640
0 760 1781
0 760 1920
0 760 2056
0 760 2190
0 760 2322
0 760 2451
0 760 2577
0 760 2702
0 760 2825
0 760 2946
0 760 3066
0 760 3184
0 760 3300
0 760 3416
0 760 3531
0 760 3644
0 760 3758
0 760 3870
0 760 3983
0 760 4095
0 910 0
0 910 153
0 910 305
0 910 457
0 910 609
0 910 760
0 910 910
0 910 1058
0 910 1206
0 910 1352
0 910 1497
0 910 1640
0 910 1781
0 910 1920
0 910 2056
0 910 2190
0 910 2322
0 910 2451
0 910 2577
0 910 2702
0 910 2825
0 910 2946
0 910 3066
0 910 3184
0 910 3300
0 910 3416
0 910 3531
0 910 3644
0 910 3758
0 910 3870
0 910 3983
0 910 4095
0 1058 0
0 1058 153
0 1058 305
0 1058 457
0 1058 609
0 1058 760
0 1058 910
0 1058 1058
0 1058 1206
0 1058 1352
0 1058 1497
0 1058 1640
0 1058 1781
0 1058 1920
0 1058 2056
0 1058 2190
0 1058 2322
0 1058 2451
0 1058 2577
0 1058 2702
0 1058 2825
0 1058 2946
0 1058 3066
0 1058 3184
0 1058 3300
0 1058 3416
0 1058 3531
0 1058 3644
0 1058 3758
0 1058 3870
0 1058 3983
0 1058 4095
0 1206 0
0 1206 153
0 1206 305
0 1206 457
0 1206 609
0 1206 760
0 1206 910
0 1206 1058
0 1206 1206
0 1206 1352
0 1206 1497
0 1206 1640
0 1206 1781
0 1206 1920
0 1206 2056
0 1206 2190
0 1206 2322
0 1206 2451
0 1206 2577
0 1206 2702
0 1206 2825
0 1206 2946
0 1206 3066
0 1206 3184
0 1206 3300
0 1206 3416
0 1206 3531
0 1206 3644
0 1206 3758
0 1206 3870
0 1206 3983
0 1206 4095
0 1352 0
0 1352 153
0 1352 305
0 1352 457
0 1352 609
0 1352 760
0 1352 910
0 1352 1058
0 1352 1206
0 1352 1352
0 1352 1497
0 1352 1640
0 1352 1781
0 1352 1920
0 1352 2056
0 1352 2190
0 1352 2322
0 1352 2451
0 1352 2577
0 1352 2702
0 1352 2825
0 1352 2946
0 1352 3066
0 1352 3184
0 1352 3300
0 1352 3416
0 1352 3531
0 1352 3644
0 1352 3758
0 1352 3870
0 1352 3983
0 1352 4095
0 1497 0
0 1497 153
0 1497 305
0 1497 457
0 1497 609
0 1497 760
0 1497 910
0 1497 1058
0 1497 1206
0 1497 1352
0 1497 1497
0 1497 1640
0 1497 1781
0 1497 1920
0 1497 2056
0 1497 2190
0 1497 2322
0 1497 2451
0 1497 2577
0 1497 2702
0 1497 2825
0 1497 2946
0 1497 3066
0 1497 3184
0 1497 3300
0 1497 3416
0 1497 3531
0 1497 3644
0 1497 3758
0 1497 3870
0 1497 3983
0 1497 4095
0 1640 0
0 1640 153
0 1640 305
0 1640 457
0 1640 609
0 1640 760
0 1640 910
0 1640 1058
0 1640 1206
0 1640 1352
0 1640 1497
0 1640 1640
0 1640 1781
0 1640 1920
0 1640 2056
0 1640 2190
0 1640 2322
0 1640 2451
0 1640 2577
0 1640 2702
0 1640 2825
0 1640 2946
0 1640 3066
0 1640 3184
0 1640 3300
0 1640 3416
0 1640 3531
0 1640 3644
0 1640 3758
0 1640 3870
0 1640 3983
0 1640 4095
0 1781 0
0 1781 153
0 1781 305
0 1781 457
0 1781 609
0 1781 760
0 1781 910
0 1781 1058
0 1781 1206
0 1781 1352
0 1781 1497
0 1781 1640
0 1781 1781
0 1781 1920
0 1781 2056
0 1781 2190
0 1781 2322
0 1781 2451
0 1781 2577
0 1781 2702
0 1781 2825
0 1781 2946
0 1781 3066
0 1781 3184
0 1781 3300
0 1781 3416
0 1781 3531
0 1781 3644
0 1781 3758
0 1781 3870
0 1781 3983
0 1781 4095
0 1920 0
0 1920 153
0 1920 305
0 1920 457
0 1920 609
0 1920 760
0 1920 910
0 1920 1058
0 1920 1206
0 1920 1352
0 1920 1497
0 1920 1640
0 1920 1781
0 1920 1920
0 1920 2056
0 1920 2190
0 1920 2322
0 1920 2451
0 1920 2577
0 1920 2702
0 1920 2825
0 1920 2946
0 1920 3066
0 1920 3184
0 1920 3300
0 1920 3416
0 1920 3531
0 1920 3644
0 1920 3758
0 1920 3870
0 1920 3983
0 1920 4095
0 2056 0
0 2056 153
0 2056 305
0 2056 457
0 2056 609
0 2056 760
0 2056 910
0 2056 1058
0 2056 1206
0 2056 1352
0 2056 1497
0 2056 1640
0 2056 1781
0 2056 1920
0 2056 2056
0 2056 2190
0 2056 2322
0 2056 2451
0 2056 2577
0 2056 2702
0 2056 2825
0 2056 2946
0 2056 3066
0 2056 3184
0 2056 3300
0 2056 3416
0 2056 3531
0 2056 3644
0 2056 3758
0 2056 3870
0 2056 3983
0 2056 4095
0 2190 0
0 2190 153
0 2190 305
0 2190 457
0 2190 609
0 2190 760
0 2190 910
0 2190 1058
0 2190 1206
0 2190 1352
0 2190 1497
0 2190 1640
0 2190 1781
0 2190 1920
0 2190 2056
0 2190 2190
0 2190 2322
0 2190 2451
0 2190 2577
0 2190 2702
0 2190 2825
0 2190 2946
0 2190 3066
0 2190 3184
0 2190 3300
0 2190 3416
0 2190 3531
0 2190 3644
0 2190 3758
0 2190 3870
0 2190 3983
0 2190 4095
0 2322 0
0 2322 153
0 2322 305
0 2322 457
0 2322 609
0 2322 760
0 2322 910
0 2322 1058
0 2322 1206
0 2322 1352
0 2322 1497
0 2322 1640
0 2322 1781
0 2322 1920
0 2322 2056
0 2322 2190
0 2322 2322
0 2322 2451
0 2322 2577
0 2322 2702
0 2322 2825
0 2322 2946
0 2322 3066
0 2322 3184
0 2322 3300
0 2322 3416
0 2322 3531
0 2322 3644
0 2322 3758
0 2322 3870
0 2322 3983
0 2322 4095
0 2451 0
0 2451 153
0 2451 305
0 2451 457
0 2451 609
0 2451 760
0 2451 910
0 2451 1058
0 2451 1206
0 2451 1352
0 2451 1497
0 2451 1640
0 2451 1781
0 2451 1920
0 2451 2056
0 2451 2190
0 2451 2322
0 2451 2451
0 2451 2577
0 2451 2702
0 2451 2825
0 2451 2946
0 2451 3066
0 2451 3184
0 2451 3300
0 2451 3416
0 2451 3531
0 2451 3644
0 2451 3758
0 2451 3870
0 2451 3983
0 2451 4095
0 2577 0
0 2577 153
0 2577 305
0 2577 457
0 2577 609
0 2577 760
0 2577 910
0 2577 1058
0 2577 1206
0 2577 1352
0 2577 1497
0 2577 1640
0 2577 1781
0 2577 1920
0 2577 2056
0 2577 2190
0 2577 2322
0 2577 2451
0 2577 2577
0 2577 2702
0 2577 2825
0 2577 2946
0 2577 3066
0 2577 3184
0 2577 3300
0 2577 3416
0 2577 3531
0 2577 3644
0 2577 3758
0 2577 3870
0 2577 3983
0 2577 4095
0 2702 0
0 2702 153
0 2702 305
0 2702 457
0 2702 609
0 2702 760
0 2702 910
0 2702 1058
0 2702 1206
0 2702 1352
0 2702 1497
0 2702 1640
0 2702 1781
0 2702 1920
0 2702 2056
0 2702 2190
0 2702 2322
0 2702 2451
0 2702 2577
0 2702 2702
0 2702 2825
0 2702 2946
0 2702 3066
0 2702 3184
0 2702 3300
0 2702 3416
0 2702 3531
0 2702 3644
0 2702 3758
0 2702 3870
0 2702 3983
0 2702 4095
0 2825 0
0 2825 153
0 2825 305
0 2825 457
0 2825 609
0 2825 760
0 2825 910
0 2825 1058
0 2825 1206
0 2825 1352
0 2825 1497
0 2825 1640
0 2825 1781
0 2825 1920
0 2825 2056
0 2825 2190
0 2825 2322
0 2825 2451
0 2825 2577
0 2825 2702
0 2825 2825
0 2825 2946
0 2825 3066
0 2825 3184
0 2825 3300
0 2825 3416
0 2825 3531
0 2825 3644
0 2825 3758
0 2825 3870
0 2825 3983
0 2825 4095
0 2946 0
0 2946 153
0 2946 305
0 2946 457
0 2946 609
0 2946 760
0 2946 910
0 2946 1058
0 2946 1206
0 2946 1352
0 2946 1497
0 2946 1640
0 2946 1781
0 2946 1920
0 2946 2056
0 2946 2190
0 2946 2322
0 2946 2451
0 2946 2577
0 2946 2702
0 2946 2825
0 2946 2946
0 2946 3066
0 2946 3184
0 2946 3300
0 2946 3416
0 2946 3531
0 2946 3644
0 2946 3758
0 2946 3870
0 2946 3983
0 2946 4095
0 3066 0
0 3066 153
0 3066 305
0 3066 457
0 3066 609
0 3066 760
0 3066 910
0 3066 1058
0 3066 1206
0 3066 1352
0 3066 1497
0 3066 1640
0 3066 1781
0 3066 1920
0 3066 2056
0 3066 2190
0 3066 2322
0 3066 2451
0 3066 2577
0 3066 2702
0 3066 2825
0 3066 2946
0 3066 3066
0 3066 3184
0 3066 3300
0 3066 3416
0 3066 3531
0 3066 3644
0 3066 3758
0 3066 3870
0 3066 3983
0 3066 4095
0 3184 0
0 3184 153
0 3184 305
0 3184 457
0 3184 609
0 3184 760
0 3184 910
0 3184 1058
0 3184 1206
0 3184 1352
0 3184 1497
0 3184 1640
0 3184 1781
0 3184 1920
0 3184 2056
0 3184 2190
0 3184 2322
0 3184 2451
0 3184 2577
0 3184 2702
0 3184 2825
0 3184 2946
0 3184 3066
0 3184 3184
0 3184 3300
0 3184 3416
0 3184 3531
0 3184 3644
0 3184 3758
0 3184 3870
0 3184 3983
0 3184 4095
0 3300 0
0 3300 153
0 3300 305
0 3300 457
0 3300 609
0 3300 760
0 3300 910
0 3300 1058
0 3300 1206
0 3300 1352
0 3300 1497
0 3300 1640
0 3300 1781
0 3300 1920
0 3300 2056
0 3300 2190
0 3300 2322
0 3300 2451
0 3300 2577
0 3300 2702
0 3300 2825
0 3300 2946
0 3300 3066
0 3300 3184
0 3300 3300
0 3300 3416
0 3300 3531
0 3300 3644
0 3300 3758
0 3300 3870
0 3300 3983
0 3300 4095
0 3416 0
0 3416 153
0 3416 305
0 3416 457
0 3416 609
0 3416 760
0 3416 910
0 3416 1058
0 3416 1206
0 3416 1352
0 3416 1497
0 3416 1640
0 3416 1781
0 3416 1920
0 3416 2056
0 3416 2190
0 3416 2322
0 3416 2451
0 3416 2577
0 3416 2702
0 3416 2825
0 3416 2946
0 3416 3066
0 3416 3184
0 3416 3300
0 3416 3416
0 3416 3531
0 3416 3644
0 3416 3758
0 3416 3870
0 3416 3983
0 3416 4095
0 3531 0
0 3531 153
0 3531 305
0 3531 457
0 3531 609
0 3531 760
0 3531 910
0 3531 1058
0 3531 1206
0 3531 1352
0 3531 1497
0 3531 1640
0 3531 1781
0 3531 1920
0 3531 2056
0 3531 2190
0 3531 2322
0 3531 2451
0 3531 2577
0 3531 2702
0 3531 2825
0 3531 2946
0 3531 3066
0 3531 3184
0 3531 3300
0 3531 3416
0 3531 3531
0 3531 3644
0 3531 3758
0 3531 3870
0 3531 3983
0 3531 4095
0 3644 0
0 3644 153
0 3644 305
0 3644 457
0 3644 609
0 3644 760
0 3644 910
0 3644 1058
0 3644 1206
0 3644 1352
0 3644 1497
0 3644 1640
0 3644 1781
0 3644 1920
0 3644 2056
0 3644 2190
0 3644 2322
0 3644 2451
0 3644 2577
0 3644 2702
0 3644 2825
0 3644 2946
0 3644 3066
0 3644 3184
0 3644 3300
0 3644 3416
0 3644 3531
0 3644 3644
0 3644 3758
0 3644 3870
0 3644 3983
0 3644 4095
0 3758 0
0 3758 153
0 3758 305
0 3758 457
