source_snapshot/assets/lut/ink.3DL
#Created by: Adobe Photoshop Export Color Lookup Plugin
#Description: ink.psd
0 146 292 438 585 731 877 1023
0 0 0
0 0 302
0 0 712
0 0 1337
0 0 2236
0 0 3143
0 0 3735
0 0 4095
0 302 0
0 302 302
0 302 712
0 302 1337
0 302 2236
0 302 3143
0 302 3735
0 302 4095
0 712 0
0 712 302
0 712 712
0 712 1337
0 712 2236
0 712 3143
0 712 3735
0 712 4095
0 1337 0
0 1337 302
0 1337 712
0 1337 1337
0 1337 2236
0 1337 3143
0 1337 3735
0 1337 4095
0 2236 0
0 2236 302
0 2236 712
0 2236 1337
0 2236 2236
0 2236 3143
0 2236 3735
0 2236 4095
0 3143 0
0 3143 302
0 3143 712
0 3143 1337
0 3143 2236
0 3143 3143
0 3143 3735
0 3143 4095
0 3735 0
0 3735 302
0 3735 712
0 3735 1337
0 3735 2236
0 3735 3143
0 3735 3735
0 3735 4095
0 4095 0
0 4095 302
0 4095 712
0 4095 1337
0 4095 2236
0 4095 3143
0 4095 3735
0 4095 4095
302 0 0
302 0 302
302 0 712
302 0 1337
302 0 2236
302 0 3143
302 0 3735
302 0 4095
302 302 0
302 302 302
302 302 712
302 302 1337
302 302 2236
302 302 3143
302 302 3735
302 302 4095
302 712 0
302 712 302
302 712 712
302 712 1337
302 712 2236
302 712 3143
302 712 3735
302 712 4095
302 1337 0
302 1337 302
302 1337 712
302 1337 1337
302 1337 2236
302 1337 3143
302 1337 3735
302 1337 4095
302 2236 0
302 2236 302
302 2236 712
302 2236 1337
302 2236 2236
302 2236 3143
302 2236 3735
302 2236 4095
302 3143 0
302 3143 302
302 3143 712
302 3143 1337
302 3143 2236
302 3143 3143
302 3143 3735
302 3143 4095
302 3735 0
302 3735 302
302 3735 712
302 3735 1337
302 3735 2236
302 3735 3143
302 3735 3735
302 3735 4095
302 4095 0
302 4095 302
302 4095 712
302 4095 1337
302 4095 2236
302 4095 3143
302 4095 3735
302 4095 4095
712 0 0
712 0 302
712 0 712
712 0 1337
712 0 2236
712 0 3143
712 0 3735
712 0 4095
712 302 0
712 302 302
712 302 712
712 302 1337
712 302 2236
712 302 3143
712 302 3735
712 302 4095
712 712 0
712 712 302
712 712 712
712 712 1337
712 712 2236
712 712 3143
712 712 3735
712 712 4095
712 1337 0
712 1337 302
712 1337 712
712 1337 1337
712 1337 2236
712 1337 3143
712 1337 3735
712 1337 4095
712 2236 0
712 2236 302
712 2236 712
712 2236 1337
712 2236 2236
712 2236 3143
712 2236 3735
712 2236 4095
712 3143 0
712 3143 302
712 3143 712
712 3143 1337
712 3143 2236
712 3143 3143
712 3143 3735
712 3143 4095
712 3735 0
712 3735 302
712 3735 712
712 3735 1337
712 3735 2236
712 3735 3143
712 3735 3735
712 3735 4095
712 4095 0
712 4095 302
712 4095 712
712 4095 1337
712 4095 2236
712 4095 3143
712 4095 3735
712 4095 4095
1337 0 0
1337 0 302
1337 0 712
1337 0 1337
1337 0 2236
1337 0 3143
1337 0 3735
1337 0 4095
1337 302 0
1337 302 302
1337 302 712
1337 302 1337
1337 302 2236
1337 302 3143
1337 302 3735
1337 302 4095
1337 712 0
1337 712 302
1337 712 712
1337 712 1337
1337 712 2236
1337 712 3143
1337 712 3735
1337 712 4095
1337 1337 0
1337 1337 302
1337 1337 712
1337 1337 1337
1337 1337 2236
1337 1337 3143
1337 1337 3735
1337 1337 4095
1337 2236 0
1337 2236 302
1337 2236 712
1337 2236 1337
1337 2236 2236
1337 2236 3143
1337 2236 3735
1337 2236 4095
1337 3143 0
1337 3143 302
1337 3143 712
1337 3143 1337
1337 3143 2236
1337 3143 3143
1337 3143 3735
1337 3143 4095
1337 3735 0
1337 3735 302
1337 3735 712
1337 3735 1337
1337 3735 2236
1337 3735 3143
1337 3735 3735
1337 3735 4095
1337 4095 0
1337 4095 302
1337 4095 712
1337 4095 1337
1337 4095 2236
1337 4095 3143
1337 4095 3735
1337 4095 4095
2236 0 0
2236 0 302
2236 0 712
2236 0 1337
2236 0 2236
2236 0 3143
2236 0 3735
2236 0 4095
2236 302 0
2236 302 302
2236 302 712
2236 302 1337
2236 302 2236
2236 302 3143
2236 302 3735
2236 302 4095
2236 712 0
2236 712 302
2236 712 712
2236 712 1337
2236 712 2236
2236 712 3143
2236 712 3735
2236 712 4095
2236 1337 0
2236 1337 302
2236 1337 712
2236 1337 1337
2236 1337 2236
2236 1337 3143
2236 1337 3735
2236 1337 4095
2236 2236 0
2236 2236 302
2236 2236 712
2236 2236 1337
2236 2236 2236
2236 2236 3143
2236 2236 3735
2236 2236 4095
2236 3143 0
2236 3143 302
2236 3143 712
2236 3143 1337
2236 3143 2236
2236 3143 3143
2236 3143 3735
2236 3143 4095
2236 3735 0
2236 3735 302
2236 3735 712
2236 3735 1337
2236 3735 2236
2236 3735 3143
2236 3735 3735
2236 3735 4095
2236 4095 0
2236 4095 302
2236 4095 712
2236 4095 1337
2236 4095 2236
2236 4095 3143
2236 4095 3735
2236 4095 4095
3143 0 0
3143 0 302
3143 0 712
3143 0 1337
3143 0 2236
3143 0 3143
3143 0 3735
3143 0 4095
3143 302 0
3143 302 302
3143 302 712
3143 302 1337
3143 302 2236
3143 302 3143
3143 302 3735
3143 302 4095
3143 712 0
3143 712 302
3143 712 712
3143 712 1337
3143 712 2236
3143 712 3143
3143 712 3735
3143 712 4095
3143 1337 0
3143 1337 302
3143 1337 712
3143 1337 1337
3143 1337 2236
3143 1337 3143
3143 1337 3735
3143 1337 4095
3143 2236 0
3143 2236 302
3143 2236 712
3143 2236 1337
3143 2236 2236
3143 2236 3143
3143 2236 3735
3143 2236 4095
3143 3143 0
3143 3143 302
3143 3143 712
3143 3143 1337
3143 3143 2236
3143 3143 3143
3143 3143 3735
3143 3143 4095
3143 3735 0
3143 3735 302
3143 3735 712
3143 3735 1337
3143 3735 2236
3143 3735 3143
3143 3735 3735
3143 3735 4095
3143 4095 0
3143 4095 302
3143 4095 712
3143 4095 1337
3143 4095 2236
3143 4095 3143
3143 4095 3735
3143 4095 4095
3735 0 0
3735 0 302
3735 0 712
3735 0 1337
3735 0 2236
3735 0 3143
3735 0 3735
3735 0 4095
3735 302 0
3735 302 302
3735 302 712
3735 302 1337
3735 302 2236
3735 302 3143
3735 302 3735
3735 302 4095
3735 712 0
3735 712 302
3735 712 712
3735 712 1337
3735 712 2236
3735 712 3143
3735 712 3735
3735 712 4095
3735 1337 0
3735 1337 302
3735 1337 712
3735 1337 1337
3735 1337 2236
3735 1337 3143
3735 1337 3735
3735 1337 4095
3735 2236 0
3735 2236 302
3735 2236 712
3735 2236 1337
3735 2236 2236
3735 2236 3143
3735 2236 3735
3735 2236 4095
3735 3143 0
3735 3143 302
3735 3143 712
3735 3143 1337
3735 3143 2236
3735 3143 3143
3735 3143 3735
3735 3143 4095
3735 3735 0
3735 3735 302
3735 3735 712
3735 3735 1337
3735 3735 2236
3735 3735 3143
3735 3735 3735
3735 3735 4095
3735 4095 0
3735 4095 302
3735 4095 712
3735 4095 1337
3735 4095 2236
3735 4095 3143
3735 4095 3735
3735 4095 4095
4095 0 0
4095 0 302
4095 0 712
4095 0 1337
4095 0 2236
4095 0 3143
4095 0 3735
4095 0 4095
4095 302 0
4095 302 302
4095 302 712
4095 302 1337
4095 302 2236
4095 302 3143
4095 302 3735
4095 302 4095
4095 712 0
4095 712 302
4095 712 712
4095 712 1337
4095 712 2236
4095 712 3143
4095 712 3735
4095 712 4095
4095 1337 0
4095 1337 302
4095 1337 712
4095 1337 1337
4095 1337 2236
4095 1337 3143
4095 1337 3735
4095 1337 4095
4095 2236 0
4095 2236 302
4095 2236 712
4095 2236 1337
4095 2236 2236
4095 2236 3143
4095 2236 3735
4095 2236 4095
4095 3143 0
4095 3143 302
4095 3143 712
4095 3143 1337
4095 3143 2236
4095 3143 3143
4095 3143 3735
4095 3143 4095
4095 3735 0
4095 3735 302
4095 3735 712
4095 3735 1337
4095 3735 2236
4095 3735 3143
4095 3735 3735
4095 3735 4095
4095 4095 0
4095 4095 302
4095 4095 712
4095 4095 1337
4095 4095 2236
4095 4095 3143
4095 4095 3735
4095 4095 4095
